projects/ccf-eui/src/assets/icons/organ-icons/organ-icon-ovary-left.svg

<svg width="64" height="64" viewBox="0 0 64 64" fill="currentColor" xmlns="http://www.w3.org/2000/svg">
<path d="M28.8639 32.832L41.8772 20.032L42.4319 22.6347C42.4319 22.6347 32.1919 28.5867 29.2692 34.5813C28.3519 31.7013 28.8639 32.832 28.8639 32.832Z"  stroke="currentColor" stroke-miterlimit="10"/>
<path d="M57.8987 5.99468C50.3894 4.71468 49.4934 12.0747 45.5467 12.3947C43.7367 12.4623 41.961 11.8881 40.5334 10.7733L38.6774 16.256C38.6774 16.256 40.9174 18.3893 41.0667 19.8187C41.216 21.248 39.8507 26.3893 41.8987 30.272C43.9467 34.1547 46.9334 36.9067 47.5734 39.7653C48.2134 42.624 47.7227 43.648 49.216 50.2187C49.9164 53.8356 51.4504 57.2395 53.696 60.16H57.9627L57.8987 5.99468Z" />
<path d="M29.4756 47.73C33.2475 45.9776 34.3815 40.4165 32.0085 35.309C29.6355 30.2015 24.6541 27.4817 20.8823 29.2341C17.1104 30.9866 15.9764 36.5476 18.3494 41.6551C20.7224 46.7626 25.7038 49.4824 29.4756 47.73Z" />
<path d="M17.8133 22.2293C19.9467 24.064 21.1627 25.2373 22.4853 26.496C21.6153 26.4136 20.7378 26.528 19.9179 26.8308C19.0981 27.1336 18.3569 27.6171 17.7493 28.2453C16.721 29.136 15.8922 30.2337 15.3173 31.4667C12.9651 28.947 10.9041 26.1704 9.17334 23.1893C0.597337 10.6667 12.3093 2.43201 25.8347 4.84268C31.5209 6.16923 36.9391 8.45627 41.856 11.6053L39.3387 17.0667C35.5327 13.7417 31.0153 11.3334 26.1333 10.0267C16.8107 7.74401 7.72267 13.376 17.8133 22.2293Z" />
</svg>

<svg xmlns="http://www.w3.org/2000/svg" width="64" height="64" fill="currentColor" viewBox="0 0 64 64"><path stroke="currentColor" stroke-miterlimit="10" d="m28.864 32.832 13.013-12.8.555 2.603s-10.24 5.952-13.163 11.946c-.917-2.88-.405-1.749-.405-1.749Z"/><path d="M57.899 5.995c-7.51-1.28-8.406 6.08-12.352 6.4a7.68 7.68 0 0 1-5.014-1.622l-1.856 5.483s2.24 2.133 2.39 3.563c.149 1.429-1.216 6.57.832 10.453s5.034 6.635 5.674 9.493.15 3.883 1.643 10.454c.7 3.617 2.234 7.02 4.48 9.941h4.267zM29.476 47.73c3.772-1.752 4.906-7.313 2.532-12.421s-7.354-7.827-11.126-6.075c-3.772 1.753-4.906 7.314-2.533 12.421 2.373 5.108 7.355 7.827 11.127 6.075"/><path d="M17.813 22.23c2.134 1.834 3.35 3.007 4.672 4.266a5.83 5.83 0 0 0-4.736 1.75 9.7 9.7 0 0 0-2.432 3.22 46 46 0 0 1-6.144-8.277C.597 10.667 12.31 2.432 25.835 4.843a51.3 51.3 0 0 1 16.021 6.762l-2.517 5.462a33.1 33.1 0 0 0-13.206-7.04c-9.322-2.283-18.41 3.349-8.32 12.202"/></svg>
